resources/icons/16px/third-party.svg

<svg width="16" height="16" viewBox="0 0 16 16" fill="none" xmlns="http://www.w3.org/2000/svg">
<path d="M4.44818 9C4.54474 9.29077 4.65399 9.55725 4.7731 9.79541L4.78531 9.81968C4.77301 10.1364 4.83613 10.4519 4.96999 10.74C5.02519 10.9366 5.11309 11.1226 5.23 11.29C5.30147 11.3842 5.38183 11.4712 5.46999 11.55C5.52839 11.7012 5.59587 11.8485 5.67198 11.9912C2.51081 11.8209 0 9.20366 0 6C0 2.68628 2.68628 0 6 0C8.99308 0 11.4743 2.19157 11.9264 5.05757C11.8151 5.04578 11.7028 5.03988 11.59 5.04001C11.4237 5.02477 11.2563 5.02477 11.09 5.04001L10.9133 5.06812C10.8431 4.69586 10.7317 4.33816 10.584 4H8.82928C8.88814 4.33304 8.93271 4.67954 8.96153 5.03659C8.79574 5.01283 8.62817 5.00056 8.46001 5C8.29127 5.00165 8.12366 5.01577 7.95847 5.04193C7.92648 4.6779 7.8768 4.32937 7.8121 4H4.1879C4.0683 4.60889 4 5.2832 4 6C4 6.7168 4.0683 7.39111 4.1879 8H5.18273C5.14173 8.28852 5.11412 8.57883 5.1 8.87C5.072 8.91236 5.04574 8.95574 5.02127 9H4.44818ZM3.17072 8C3.06015 7.37439 3 6.70129 3 6C3 5.29871 3.06015 4.62561 3.17072 4H1.41605C1.14847 4.61243 1 5.28894 1 6C1 6.71106 1.14847 7.38757 1.41605 8H3.17072ZM1.99963 9C2.53378 9.71118 3.25314 10.2753 4.08612 10.6206C3.81271 10.1671 3.58026 9.61841 3.40137 9H1.99963ZM4.44818 3H7.55182C7.45526 2.70923 7.34601 2.44275 7.2269 2.20459C6.73715 1.2251 6.24561 1 6 1C5.75439 1 5.26285 1.2251 4.7731 2.20459C4.65399 2.44275 4.54474 2.70923 4.44818 3ZM8.59863 3H10.0004C9.46622 2.28882 8.74686 1.72473 7.91388 1.37939C8.18729 1.83289 8.41974 2.38159 8.59863 3ZM4.08612 1.37939C3.25314 1.72473 2.53378 2.28882 1.99963 3H3.40137C3.58026 2.38159 3.81271 1.83289 4.08612 1.37939ZM13.4764 16C13.4764 16 13.5941 15.6154 13.3036 14.9539C13.0762 14.4215 12.1316 14.0385 11.2885 13.6967C11.0841 13.6139 10.8857 13.5334 10.7049 13.4539C9.89693 13.0983 9.88911 12.8656 9.87958 12.5823C9.87818 12.5407 9.87675 12.4981 9.87275 12.4539V12.3154C10.1868 12.0308 10.4458 11.6461 10.6185 11.2C10.6185 11.2 10.6264 11.177 10.6264 11.1692C10.6656 11.0693 10.697 10.9692 10.7206 10.8693C10.9326 10.8307 11.0504 10.6 11.0975 10.3846C11.1524 10.2924 11.2466 10.0846 11.2231 9.83838C11.1995 9.53075 11.0739 9.38462 10.9326 9.323V9.26925C10.9326 8.877 10.8934 8.3077 10.8226 7.93846C10.807 7.83846 10.7834 7.73076 10.752 7.63076C10.6185 7.16154 10.328 6.75384 9.95125 6.46154C9.55863 6.16154 9.00125 6 8.5065 6C8.01194 6 7.4545 6.16154 7.06194 6.46154C6.68509 6.75384 6.39459 7.16154 6.26112 7.62308C6.2297 7.72307 6.20615 7.83076 6.19045 7.93076C6.11979 8.3 6.08054 8.877 6.08054 9.26925V9.31537C5.93922 9.377 5.80574 9.523 5.77434 9.83838C5.75079 10.0846 5.85285 10.2924 5.89997 10.3846C5.94707 10.6 6.07269 10.8384 6.29253 10.877C6.31218 10.9604 6.34276 11.0492 6.37059 11.13L6.38673 11.177C6.38673 11.1846 6.39459 11.1924 6.39459 11.1924V11.2C6.56732 11.6539 6.83425 12.0461 7.15615 12.3154C7.15615 12.3396 7.15401 12.3637 7.15196 12.3867C7.15009 12.4077 7.1483 12.4278 7.1483 12.4461C7.14493 12.4824 7.14301 12.5177 7.14113 12.5522C7.12545 12.8394 7.11257 13.0753 6.29253 13.4461C6.11659 13.5236 5.92387 13.6021 5.72528 13.6831C4.87814 14.0285 3.92273 14.418 3.69378 14.9539C3.41112 15.6154 3.52104 16 3.52104 16H13.4764ZM15.9794 14.75H14.5656C14.5325 14.6547 14.4942 14.5566 14.4502 14.456C14.2581 14.0111 13.9295 13.703 13.6634 13.5014C13.3854 13.2906 13.0735 13.1206 12.7904 12.9836C12.4656 12.8264 12.0237 12.646 11.6676 12.5007L11.6482 12.4928C11.5638 12.4583 11.4845 12.4258 11.4131 12.3964C11.5567 12.1657 11.6791 11.9201 11.779 11.6648C11.868 11.578 11.941 11.4881 11.999 11.4042C12.1312 11.2129 12.2159 11.0136 12.27 10.8372C12.3871 10.5856 12.5102 10.1976 12.4685 9.73175C12.4417 9.40225 12.3447 9.08113 12.1701 8.80713C12.1521 8.44639 12.1141 8.04514 12.0542 7.724C12.0314 7.58364 11.9975 7.42834 11.9499 7.2732C11.8146 6.80615 11.5839 6.38539 11.2886 6.02781C11.404 6.00939 11.5192 6 11.6307 6C12.0635 6 12.5512 6.14135 12.8949 6.40385C13.2245 6.65961 13.4787 7.01635 13.5955 7.42691C13.6229 7.51441 13.6436 7.60865 13.6572 7.69615C13.7191 8.01924 13.7535 8.51737 13.7535 8.8605V8.90763C13.8771 8.9615 13.9871 9.0895 14.0076 9.35863C14.0282 9.574 13.9459 9.75587 13.8979 9.8365C13.8565 10.025 13.7535 10.227 13.568 10.2605C13.5474 10.348 13.5199 10.4355 13.4855 10.523C13.4855 10.5299 13.4787 10.55 13.4787 10.55C13.3276 10.9404 13.1009 11.277 12.8261 11.526V11.6471C12.8296 11.6854 12.8308 11.7222 12.8321 11.7581V11.7595C12.8405 12.0074 12.8474 12.211 13.5542 12.5221C13.7124 12.5918 13.886 12.6621 14.0649 12.7346C14.8026 13.0336 15.6291 13.3687 15.8282 13.8346C16.0824 14.4135 15.9794 14.75 15.9794 14.75Z" fill="black"/>
</svg>

<svg xmlns="http://www.w3.org/2000/svg" viewBox="0 0 16 16">
  <path d="M4.448 9q.146.436.325.795l.012.025a2 2 0 0 0 .185.92c.055.197.143.383.26.55q.107.141.24.26a4 4 0 0 0 .202.441 6 6 0 1 1 6.254-6.933 3 3 0 0 0-.336-.018 3 3 0 0 0-.5 0l-.177.028A5 5 0 0 0 10.584 4H8.829q.09.5.133 1.037A4 4 0 0 0 8.46 5a3.4 3.4 0 0 0-.502.042A10 10 0 0 0 7.812 4H4.188C4.068 4.609 4 5.283 4 6s.068 1.391.188 2h.995a9 9 0 0 0-.083.87 2 2 0 0 0-.079.13zM3.171 8C3.06 7.374 3 6.701 3 6s.06-1.374.17-2H1.417A5 5 0 0 0 1 6c0 .711.148 1.388.416 2zM2 9a5 5 0 0 0 2.086 1.62A6.8 6.8 0 0 1 3.401 9zm2.448-6h3.104a6 6 0 0 0-.325-.795C6.737 1.225 6.246 1 6 1s-.737.225-1.227 1.205q-.179.358-.325.795m4.15 0H10a5 5 0 0 0-2.086-1.62c.273.453.506 1.002.685 1.62M4.087 1.38A5 5 0 0 0 2 3H3.4a6.8 6.8 0 0 1 .685-1.62M13.476 16s.118-.385-.172-1.046c-.228-.533-1.172-.915-2.015-1.257a22 22 0 0 1-.584-.243c-.808-.356-.816-.588-.825-.872q-.002-.062-.007-.128v-.139c.314-.284.573-.669.745-1.115 0 0 .008-.023.008-.03q.06-.15.095-.3c.212-.04.33-.27.377-.485.054-.093.149-.3.125-.547-.024-.307-.15-.453-.29-.515v-.054c0-.392-.04-.961-.11-1.33a2 2 0 0 0-.071-.308 2.3 2.3 0 0 0-.8-1.17C9.558 6.162 9.001 6 8.506 6s-1.052.162-1.445.462A2.3 2.3 0 0 0 6.19 7.93c-.07.369-.11.946-.11 1.338v.046c-.14.062-.274.208-.306.523a1 1 0 0 0 .126.547c.047.215.173.453.393.492.02.083.05.172.078.253l.016.047c0 .008.008.015.008.015v.008c.172.454.44.846.761 1.115l-.004.072q-.003.03-.004.06l-.007.105c-.016.287-.028.523-.848.894-.176.078-.37.156-.568.237-.847.345-1.802.735-2.031 1.27C3.41 15.616 3.52 16 3.52 16zm2.503-1.25h-1.413a4 4 0 0 0-.116-.294c-.192-.445-.52-.753-.787-.955-.278-.21-.59-.38-.873-.517a21 21 0 0 0-1.122-.483l-.02-.008-.235-.097q.216-.347.366-.731c.089-.087.162-.177.22-.26.132-.192.217-.391.271-.568.117-.251.24-.64.199-1.105a2 2 0 0 0-.299-.925 9 9 0 0 0-.116-1.083 3.4 3.4 0 0 0-.104-.45 3.5 3.5 0 0 0-.661-1.246A2 2 0 0 1 11.63 6c.432 0 .92.141 1.264.404.33.256.584.612.7 1.023.028.087.049.182.062.27.062.322.097.82.097 1.164v.047c.123.053.233.181.254.45a.8.8 0 0 1-.11.478c-.041.189-.144.391-.33.425a2 2 0 0 1-.082.262c0 .007-.007.027-.007.027-.151.39-.378.727-.653.976v.121q.005.057.006.111v.002c.008.247.015.451.722.762.158.07.332.14.51.213.739.299 1.565.634 1.764 1.1.254.579.151.915.151.915"/>
</svg>
